X: 7660
T: Coleg Y Brifysgol Abertawe
R: reel
M: 4/4
K: Dminor
|:A2|"Dm" d2 A2 AcBA|"Gm" B2 G2 GBAG|"Dm" AGFA "A7" GFEG|"Dm" FEDF "A" EA=B^c|
"Dm" d2 A2 AcBA|"Gm" B2 G2 GBAG|"Dm" AGFA "A7" GFEG|"Dm" F2 D2 D2:|
|:A2|"Dm" defe d2 d2|"A7" efgf e2 e2|"Dm" defe d2d2|"A" ed^c=B ABcA|
"Dm" defe d2 d2|"A7" edef g2 ag|"Dm" fedf "A" ed^ce|"Dm" d2 d2 d2:|

